X:1
T:Title
%%score { ( 1 3 4 ) | 2 }
L:1/8
M:6/4
K:Eb
V:1 treble nm="Grand Piano"
V:3 treble 
V:4 treble 
V:2 bass 
V:1
 z6 z4[Q:1/4=132] E2 | G3 G G2 G2 [FA]2 [GB]2 | [Ge]6 [GB]4 G2 | E2 D2 E2 c2 B2 G2 | %4
 [DF]6- [DF]4 [EG]2 | [FA]3 [FA] [FA]2 [FA]2 [GB]2 [Ac]2 | [Ad]6 [Ac]4 [B,DF]2 | %7
 [B,EB]6 [DAB]4 [DAB]2 | [EGB]12 | .e12 | G12 | .c12 | A12 | [Fd]2 [Fd]2 [Fd]2 d2 c2 B2 | %14
 e6 B4 A2 | G6 [DF]4 [DF]2 |[M:5/4] E2- E2- E6 |] %17
V:2
 z6 z4 [E,G,]2 | [E,B,E]3 [E,B,E] [E,B,E]2 [E,B,E]2 [E,B,]2 [E,E]2 | [E,B,]6 [E,E]4 [E,B,E]2 | %3
 [E,G,B,]2 [F,A,B,]2 [G,B,]2 [A,E]2 [G,B,E]2 [E,B,E]2 | [B,,B,]6- [B,,B,]4 [B,,B,]2 | %5
 [B,,B,]3 [B,,B,] [B,,B,]2 [B,,B,]2 [B,,B,]2 [B,,B,]2 | [B,,B,]6 [B,,B,]4 A,2 | G,6 F,4 B,,2 | %8
 E,12 | [E,B,]3 [E,B,] [E,B,]2 .[E,B,]6 | [E,B,E]3 [E,B,] [E,B,]2 .[E,B,]6 | %11
 [C,B,]3 [C,B,] [C,G,]2 .[C,C]6 | [F,CF]3 [F,C] [F,C]2 [F,C]4 [F,CF][F,CF] | %13
 [B,,B,]2 [B,,B,]2 [B,,B,]2[K:treble] [A,B,F]2 [A,B,F]2 [A,B,F]2 | %14
 [G,B,E]6 [G,B,E]4[K:bass] [A,CE]2 | [B,E]6 [B,,A,]4 [B,,A,]2 |[M:5/4] [E,G,]2- [E,G,]2- [E,G,]6 |] %17
V:3
 x12 | x12 | x12 | x12 | x12 | x12 | x12 | x12 | x12 | G3 G G2 z2 d2 c2 | z2 z E E2 .E6 | %11
 =E3 E E2 z2 B2 G2 | z2 z F F2 F4 AA | x12 | x12 | x12 |[M:5/4] x10 |] %17
V:4
 x12 | x12 | x12 | x12 | x12 | x12 | x12 | x12 | x12 | z6 .G6 | x12 | z6 .=E6 | x12 | x12 | x12 | %15
 x12 |[M:5/4] x10 |] %17

